css/images/noun-berlin-1039748.svg

<svg xmlns="http://www.w3.org/2000/svg" xmlns:xlink="http://www.w3.org/1999/xlink" version="1.1" x="0px" y="0px" viewBox="0 0 150 187.5" enable-background="new 0 0 150 150" xml:space="preserve"><g><g><g><path d="M154.6179504,91.9804764h-47.020134V79.80793h36.0253067L154.6179504,91.9804764z M110.0013428,89.5769501h39.2063293     l-6.6525269-7.3654938h-32.5538025V89.5769501z"/></g><g><path d="M126.7039642,141.0473633h-9.6522446V89.5769501h9.6522446V141.0473633z M119.455246,138.6438446h4.845192V91.9804764     h-4.845192V138.6438446z"/></g><g><path d="M145.6123657,141.0473633h-9.6516571V89.5769501h9.6516571V141.0473633z M138.3642273,138.6438446h4.8446198V91.9804764     h-4.8446198V138.6438446z"/></g></g><g><g><path d="M42.402771,91.9804764H-4.6179576L6.3774676,79.80793H42.402771V91.9804764z M0.7923222,89.5769501h39.2069206     v-7.3654938H7.4454408L0.7923222,89.5769501z"/></g><g><path d="M32.9482765,141.0473633h-9.6516552V89.5769501h9.6516552V141.0473633z M25.7001476,138.6438446h4.8446045V91.9804764     h-4.8446045V138.6438446z"/></g><g><path d="M14.0398788,141.0473633H4.3882217V89.5769501h9.6516571V141.0473633z M6.7917471,138.6438446h4.8446064V91.9804764     H6.7917471V138.6438446z"/></g></g><g><path d="M110.0013428,141.0473633h-10.754837V53.9659233h10.754837V141.0473633z M101.650032,138.6438446h5.9477844V56.3694496    h-5.9477844V138.6438446z"/></g><g><path d="M50.7540855,141.0473633H39.9992447V53.9659233h10.7548409V141.0473633z M42.402771,138.6438446h5.9477882V56.3694496    H42.402771V138.6438446z"/></g><g><path d="M80.3774185,141.0473633h-10.754837V53.9659233h10.754837V141.0473633z M72.0261078,138.6438446h5.9477844V56.3694496    h-5.9477844V138.6438446z"/></g><g><path d="M114.5795441,56.3694496h-79.158493l-7.9962997-15.7443848h95.1505127L114.5795441,56.3694496z M36.8962555,53.9659233    h76.2080765l5.5546188-10.9373322H31.3410378L36.8962555,53.9659233z"/></g><g><path d="M88.2563553,42.5820389H61.7442284V27.2049904h26.5121269V42.5820389z M64.1477509,40.1785126h21.7050858V29.6085167    H64.1477509V40.1785126z"/></g><g><path d="M79.5371246,28.3803482h-2.4035263V16.0112286c0-3.8282728-0.3790741-4.6550713-2.1335983-4.6550713    s-2.1335983,0.8267984-2.1335983,4.6550713v12.3691196h-2.4035263V16.0112286c0-2.8107643,0-7.0585966,4.5371246-7.0585966    s4.5371246,4.2478323,4.5371246,7.0585966V28.3803482z"/></g></g><text x="0" y="165" fill="#000000" font-size="5px" font-weight="bold" font-family="'Helvetica Neue', Helvetica, Arial-Unicode, Arial, Sans-serif">Created by DinosoftLabs</text><text x="0" y="170" fill="#000000" font-size="5px" font-weight="bold" font-family="'Helvetica Neue', Helvetica, Arial-Unicode, Arial, Sans-serif">from the Noun Project</text></svg>

<svg width="150" height="188" viewBox="0 0 150 188" fill="none" xmlns="http://www.w3.org/2000/svg">
<g clip-path="url(#clip0_1_108)">
<path d="M154.618 91.9805H107.598V79.8079H143.623L154.618 91.9805ZM110.001 89.577H149.208L142.555 82.2115H110.001V89.577Z" fill="black"/>
<path d="M126.704 141.047H117.052V89.577H126.704V141.047ZM119.455 138.644H124.3V91.9805H119.455V138.644Z" fill="black"/>
<path d="M145.612 141.047H135.961V89.577H145.612V141.047ZM138.364 138.644H143.209V91.9805H138.364V138.644Z" fill="black"/>
<path d="M42.4028 91.9805H-4.61795L6.37747 79.8079H42.4028V91.9805ZM0.792329 89.577H39.9993V82.2115H7.44545L0.792329 89.577Z" fill="black"/>
<path d="M32.9483 141.047H23.2966V89.577H32.9483V141.047ZM25.7002 138.644H30.5448V91.9805H25.7002V138.644Z" fill="black"/>
<path d="M14.0399 141.047H4.38824V89.577H14.0399V141.047ZM6.79177 138.644H11.6364V91.9805H6.79177V138.644Z" fill="black"/>
<path d="M110.001 141.047H99.2465V53.9659H110.001V141.047ZM101.65 138.644H107.598V56.3695H101.65V138.644Z" fill="black"/>
<path d="M50.7541 141.047H39.9993V53.9659H50.7541V141.047ZM42.4028 138.644H48.3506V56.3695H42.4028V138.644Z" fill="black"/>
<path d="M80.3774 141.047H69.6226V53.9659H80.3774V141.047ZM72.0261 138.644H77.9739V56.3695H72.0261V138.644Z" fill="black"/>
<path d="M114.58 56.3694H35.421L27.4247 40.6251H122.575L114.58 56.3694ZM36.8962 53.9659H113.104L118.659 43.0286H31.341L36.8962 53.9659Z" fill="black"/>
<path d="M88.2564 42.582H61.7442V27.205H88.2564V42.582ZM64.1478 40.1785H85.8528V29.6085H64.1478V40.1785Z" fill="black"/>
<path d="M79.5371 28.3804H77.1336V16.0112C77.1336 12.183 76.7545 11.3562 75 11.3562C73.2455 11.3562 72.8664 12.183 72.8664 16.0112V28.3804H70.4629V16.0112C70.4629 13.2005 70.4629 8.95264 75 8.95264C79.5371 8.95264 79.5371 13.2005 79.5371 16.0112V28.3804Z" fill="black"/>
</g>
<defs>
<clipPath id="clip0_1_108">
<rect width="150" height="187.5" fill="white"/>
</clipPath>
</defs>
</svg>
